screw-round-top.svg

<svg fill="currentColor" viewBox="0 0 24 24"><path d="M13.5 17v2L12 22l-1.5-3zm1-10.7-1 .7V6h-3v3l-1 .7v1l5-3.3zm0 4-1 .7V9l-3 2v2l-1 .7v1l5-3.3zm0 4-1 .7v-2l-3 2v2l-1 .7v1l5-3.3zM7 5h10s-1-3-5-3-5 3-5 3"/></svg>

<svg  viewBox="0 0 24 24" fill="currentColor"><path  d="M13.5,17V19L12,22L10.5,19L13.5,17M14.5,6.3L13.5,7V6H10.5V9L9.5,9.7V10.7L14.5,7.4V6.3M14.5,10.3L13.5,11V9L10.5,11V13L9.5,13.7V14.7L14.5,11.4V10.3M14.5,14.3L13.5,15V13L10.5,15V17L9.5,17.7V18.7L14.5,15.4V14.3M7,5H17C17,5 16,2 12,2C8,2 7,5 7,5Z"/></svg>
